X:1
T:Title
%%score { ( 1 4 ) | ( 2 3 ) }
L:1/8
M:4/4
K:Bb
V:1 treble nm="Grand Piano"
V:4 treble 
V:2 bass 
V:3 bass 
V:1
 z4 z2[Q:1/4=100] F>[FB] | [Fd]2 [Fd]>[Fc] [FB]2 [FA][FB] | c B2 G [B,DF]2 [B,D]E | %3
 [B,DF]2 B>B B A2 B | c6 F>[FB] | [Fd]2 d>d d2 dd | d2 e>d G2 [Gc]2 | B2 AB [=Ed]2 [Ec]E | %8
[M:3/4] F6 |[M:1/4] F2 |[M:4/4] d2 c>A A,A,A,F | [Dc] [DB]2 [DG] [DF]3 [DF] | G2 G>G [^FA]2 [GB]2 | %13
 [Ac]6 z2 | d2 d>d d2 dd |[M:3/4] d2 e>d G2 |[M:1/4] [Gc][Gc] |[M:4/4] B2 AB d2 cA | %18
[M:7/4] [B,DB]4 z2 z2 z2 z4 |[M:1/4] F>G |[M:4/4] F6 z2 | z2 F4 z2 | G2 [EG][EG] G2 FE | %23
[M:3/4] D6 |] %24
V:2
 z4 z2 F,>[D,F,] | [B,,B,]2 [B,,B,]>[C,A,] [D,B,]2 [D,F,][D,F,] | %2
 [E,G,E] [E,G,E]2 [E,B,E] B,,2 z C | B,,2[K:treble] [B,DF]>[B,DF] [G,C=E]3 [G,CE] | %4
 [F,A,F]6[K:bass] F,>[D,F,] | [B,,B,]2[K:treble] [B,DF]>[B,DF] [A,C^F]2 [A,CF][A,CF] | %6
 [G,=B,F]2 [G,B,F]>[G,B,F] [CE]2[K:bass] [E,E]2 | [F,DF]2 [F,CF][F,DF] [C,B,]2 [C,G,][C,B,C] | %8
[M:3/4] [F,A,C]6 |[M:1/4] [F,A,]2 |[M:4/4] E2 E>E F,F,F,[F,A,E] | %11
 [A,,B,] [B,,B,]2 [B,,B,] [B,,B,]3 [B,,B,] | [E,B,E]2 [E,B,E]>[E,B,] [D,D]2 [G,D]2 | %13
 F2 z2 z2[K:treble] [F,A,F]2 | [B,F]2 [B,DF]>[B,DF] [A,C^F]2 [A,CF][A,CF] | %15
[M:3/4] [G,=B,F]2 [G,B,F]>[G,B,F] [CE]2 |[M:1/4][K:bass] [E,E][E,E] | %17
[M:4/4] [F,DF]2 [F,CF][F,DF] [F,B,F]2 [F,A,E][F,CE] |[M:7/4] B,,4 z2 z2 z2 z4 |[M:1/4] D>D | %20
[M:4/4] E6 z2 | D2 [D,B,]>F, B,2 [D,B,]>[D,B,] | [E,B,E]2 [C,B,][C,B,] [F,B,E]2 [F,A,D][F,C] | %23
[M:3/4] [B,,F,B,]6 |] %24
V:3
 x8 | x8 | z4 z2 B,,2 | x2[K:treble] x6 | x6[K:bass] x2 | x2[K:treble] x6 | x6[K:bass] x2 | x8 | %8
[M:3/4] x6 |[M:1/4] x2 |[M:4/4] [F,A,]4 z4 | x8 | x8 | F,6[K:treble] z2 | x8 |[M:3/4] x6 | %16
[M:1/4][K:bass] x2 |[M:4/4] x8 |[M:7/4] x14 |[M:1/4] x2 |[M:4/4] z2 F,>F, F,2 E>E | x8 | x8 | %23
[M:3/4] x6 |] %24
V:4
 x8 | x8 | x8 | x8 | x8 | x8 | x8 | x8 |[M:3/4] x6 |[M:1/4] x2 |[M:4/4] z4 [EF]4 | x8 | x8 | %13
 z2 C>D E2 e2 | x8 |[M:3/4] x6 |[M:1/4] x2 |[M:4/4] x8 |[M:7/4] x14 |[M:1/4] x2 | %20
[M:4/4] z2 A,>B, C2 F>G | F2 z z/ C/ D2 F>F | x8 |[M:3/4] x6 |] %24

